X:150
T:The Coronation Day
C:Henry Playford, 1698
%%stretchstaff 0
S:Colin Hume's website,  colinhume.com  - chords can also be printed below the stave.
Q:1/2=112
M:2/2
L:1/8
K:F
P:A
|: c2 | "F"f2e2 f2c2 | "/"f4 c3c | "Bb"d2(BA) "C7"G2c2 | "F"A2 F4 :|
P:B
|: A2 | "Bb"B3c d2(cB) | "F"A3G F2A2 | "Bb"B3c d2(cB) | "F"A3B c2(BA) |\
"Gm"GFGA BABc | "Bb"d3e "F/A"f2A2 | "Gm"B2A2 "C7"G2c2 | "F"A2 F4 :|

